X: 10107
T: STEVE GOVE'S WELCOME TO DEERFIELD
C: Bob McQuillen 16 April 93
B: Bob's Note Book 10 #107
%R: march, reel
Z: 2020 John Chambers <jc:trillian.mit.edu>
M: C
L: 1/8
K: D
AG \
| F2A2 d2e2 | f3e d2A2 | B2d2 d3e | d6 A2 | B3A B2c2 | d2cB A2de | f3e d2f2 | e6 AG |
| F2A2 d2e2 | f2 d4 A2 | B3c d2e2 | f6 f2 | a3a g2f2 | e2d2 B2dB | A2f2 f3e | d6 ||
|| e2 \
| fefe f2g2 | fefe f2g2 | f3e d2e2 | f6 e2 | d3e d2cB | A2 d4 c2 | B3c d2f2 | e6 a2 |
| fefe f2g2 | fefe f2g2 | f3e d2e2 | f6 f2 | g3f e2de | f2d2 A2FA | B2cd e2c2 | d6 |]
%%begintext align
%% Steve lives
%% up in North Woodstock, NH, but every so often
%% he makes it down to Deerfield, and that's why
%% I thought he needed this tune. Deanna Stiles
%% likes the melody pretty well, and so sometimes she
%% plays it on her flute for Steve. I think that's
%% mighty nice of her, don't you?
%%endtext

%%sep 1 1 500

%%sep 1 1 500

